X:221
T:Collidge Hornpipe
O:No 221 Page 109 William Clarke of Feltwell
M:4/4
L:1/8
N:Bars A7 and B7 changed from quavers in M.s. to crotchets.
N:Bars B4 and B5 changed from |B2G2G2e|fgagfe2|
K:C
cB|c2C2C2GF|EGc2c2d^c|d2D2D2dc|Bdg2g2ab|c'bag agfe|fdec cBAG|A2B2c2d2|e2c2c2::GF|EGcG EGcG|A2F2F2E2|D2d2dedc|B2G2G2e2|fgagf2e2|fdec cBAG|A2B2c2d2|e2c2c2:|

